!!!!SEGMENT: pl-wtm--r-2519--001_hertz-michal--kanon.krn
!!!cenid: 18xx:3085
!!!COM: Hertz, Michał
!!!COM-rismid: pe41023359
!!!CDT: 1844/09/28-~1918
!!!CNT: Polish
!!!OTL: Kanon [1]
!!!PDT:
!!!AGN:
!!!SMS-siglum: PL-Wtm
!!!SMS-shelfmark: R 2519
!!!SMS-shelfwork: 001 W
!!!SMS-variant:
!!!SMS-altvar:
!!!NIFC-rismid: 1001082119
!!!URL-scan: http://repozytorium.nifc.pl/skany/pl-wtm-nut--r2519
!!!ONB-nifc: UWAGA: 9 Kanonów num. 001-009. Skan 0004
**kern	**kern
*part2	*part1
*staff2	*staff1
*Iforte	*Iforte
*I"[Fortepian]	*I"[Fortepian]
*	*I'
*clefF4	*clefG2
*k[]	*k[]
*C:	*C:
*M2/4	*M2/4
*[>A,A,B]	*[>A,A,B]
=1	=1
!!LO:TX:t=P:problem:all\left, middle, right:global
!LO:TX:t=P:problem:t. 1-3 – dopiski ołówkiem	!
8r	2ryy
8C\	.
4G\	.
*>A	*>A
=2!|:	=2!|:
16G\LL	8r
16F\	.
16E\	8c/
16D\JJ	.
8C\L	[4g/
8BBt\J	.
=3	=3
8r	16g/LL]
.	16f/
8AA/	16e/
.	16d/JJ
[4E\	8c/L
.	8Bt</J
=4	=4
16E\LL]	8r
16D\	.
16C\	8A/
16BB\JJ	.
8AA/L	[4e/
8GGT</J	.
=5	=5
8r	16e/LL]
.	16d/
8AA/	16c/
.	16B/JJ
16C\LL	8A/L
16D\J	.
[8E\J	8GT</J
=6	=6
16E\LL]	8r
16D\	.
16C\	8A/
16BB\JJ	.
8AA/L	16c/LL
.	16d/J
8GG/J	[8e/J
=7	=7
8FF#X/	16e/LL]
.	16d/
4F#yXt\	16c/
.	16B/JJ
.	8A/L
[8E\	8G/J
=8	=8
!LO:TX:t=P:problem:dopiski ołówkiem	!
4E\]	8F#X/
.	4f#yX/
8D\L	.
8G\J	[>8e/
!!linebreak:original
=9	=9
!	!LO:TX:t=P:problem:dopiski ołówkiem
8r	4e/]
8C\	.
!	!LO:TX:a:t=I
4G\	8d/L
.	8g/J
*>B	*>B
=10:|!	=10:|!
!	!LO:TX:t=P:problem:łuk
8r	4e/
8G\L	.
!LO:TX:t=P:problem:kasownik dopisany ołówkiem	!LO:TX:a:t=II
8F\	8d/L
8E\J	8g/J
=11	=11
16E\LL	8r
16D\	.
16C\	8g/L
16BB\JJ	.
16AA\LL	8f/
16BB\	.
16C\	8e/J
16D\JJ	.
=12	=12
8C\	16e/LL
.	16d/
4.E\	16c/
.	16B/JJ
.	16A/LL
.	16B/
.	16c/
.	16d/JJ
=13	=13
16E\LL	8c/
16F#iX\	.
16G\	4.e/
16A\JJ	.
8G\L	.
8F#\J	.
=14	=14
8E\	16e/LL
.	16f#X/
4E\	16g/
.	16a/JJ
.	8g/L
8A\	8f#/J
=15	=15
16c\LL	8e/
16B\	.
16A\	4e/
16B\JJ	.
8c\L	.
8Fn\J	8a/
=16	=16
4.E\	16cc\LL
.	16b\
.	16a\
.	16b\JJ
.	8cc\L
8A\	8f\J
=17	=17
16G\LL	4.e/
16F\	.
16E\	.
16D\JJ	.
8C\L	.
8D\J	8a/
!!linebreak:original
=18||	=18||
8E\	16g/LL
.	16f/
8C\	16e/
.	16d/JJ
[4G\	8c/L
.	8d/J
=19	=19
16G\LL]	8e/
16F\	.
16E\	8c/
16D\JJ	.
8C\L	[4g/
8BB\J	.
=20	=20
8r	16g/LL]
.	16f/
8AA/	16e/
.	16d/JJ
[4E\	8c/L
.	8B/J
=21	=21
16E\LL]	8r
16D\	.
16C\	8A/
16BB\JJ	.
8AA/L	[4e/
8GG/J	.
=22	=22
8r	16e/LL]
.	16d/
8AA/	16c/
.	16B/JJ
16C\LL	8A/L
16D\J	.
[8E\J	8G/J
=23	=23
16E\LL]	8r
16D\	.
16C\	8A/
16BB\JJ	.
8AA/L	16c/LL
.	16d/J
8GG/J	8e/J
=24	=24
8FF/	16e/LL
.	16d/
4FT\	16c/
.	16B/JJ
.	8A/L
8G\	8G/J
=25	=25
16D\LL	8F/
16C\	.
16BB\	4f/
16AA\JJ	.
16BB\LL	.
16AA\J	.
8BB\J	8g/
=26	=26
8BB\	16d/LL
.	16c/
4.GG/	16B/
.	16A/JJ
.	16B/LL
.	16A/J
.	8B/J
=27	=27
*2\right	*
!LO:N:vis=2.	!
2C\	2c/
==	==
*-	*-
!!!system-decoration: [(s1,s2)]
!!!RDF**kern: > = above
!!!RDF**kern: < = below
!!!RDF**kern: i = editorial accidental
!!!AIN: 2 forte
!!!ENC: Katarzyna Serwa
!!!END: 2021-10-23
!!!ENC: Filip Voros
!!!END: 2021-10-22
